X:43
T:La bergère et le monsieur
R:Chanson
O:France
B:Le livre des Chansons (Henri Davenson) n°43
Z:<anamnese@caramail.com> -- http://anamnese.fr.st
M:6/8
L:1/8
Q:1/4=80
K:Eb
c | c3 B c e | c3 B3 | B B c B2 A | G3 zz c | c3 B c e | c3 B3 | B B c B2 A | G3 z E F |!
M:9/8
G2 B G3 F G F |\
M:6/8
E2 F G E F |\
M:9/8
G2 B G3 F G F |\
M:6/8
D2 D C3 ||
W:Que fais-tu bergerette, là-bas dedans le pré ?
W:Tu es toute seulette pour tes moutons garder.
W:Fiale ma coulougno,garde mous moutous
W:Vire ma roulèto de cent milo tous.

